X: 10
T: The Rose Of Aranmore
B: begged borrowed and stolen
M:3/4
L:1/8
R: waltz
Q: 1/4=100
K:Dmajor
V:1 
AF|              "D"D4 F2|              A2 F2 D2|              "G"G4 B2|              d2 c2 B2|              "D"A4 B2|              A2 F2 D2|              "A"E6 -|              E2 A2 F2|              
 "D"D4 F2|A2 F2 D2|"G"G4 B2|d2 c2 B2|"D"A4 F2|"A"G2 F2 E2|"D"D6 -|D4 A2|
 "G"G4 B2|              d2 c2 B2|              "D"A4 B2|              A2F2D2|              "G"G4 B2|              "D"A4 F2|              "A"E6 -|              E2 A2 F2|              
 "D"D4 F2|              A2 F2 D2|              "G"G4 B2|              d2 c2 B2|              "D"A4 F2|              "A"G2 F2 E2|              "D"D6 -|              D4 A2||
% abcbook-tune_id 62828a3a86e0be488493663b


% abcbook-boost 0
% abcbook-tablature 
% abcbook-transpose 
% abcbook-lastupdated 1652725431047
% abcbook-soundfonts 
% abcbook-repeats 3
% abc-sessionorg_id 1129
% abc-sessionorg_setting 0
% abc-sessionorg_setting_id 43571
% abc-boost 1

